packages/ui/assets/svg/partner_triangle.svg

<svg class="partner-size" width="100" height="15" viewBox="0 0 100 15" fill="none" xmlns="http://www.w3.org/2000/svg">
<g id="partner_triangle" clip-path="url(#clip0_205_145)">
<path class="fill" d="M75.9397 10.9995C76.5571 10.8092 77.077 10.5104 77.5547 10.0715L77.9834 9.6775L78.3236 9.86576C78.5106 9.9693 78.6808 10.054 78.7018 10.054C78.7227 10.054 78.7326 9.59756 78.7237 9.03968L78.7076 8.02534L76.705 6.93504C75.6036 6.33537 74.6826 5.84447 74.6583 5.84415C74.634 5.84386 74.6144 6.29055 74.6148 6.83687L74.6155 7.83018L75.5361 8.32761L76.4567 8.82504L76.3158 8.93964C76.2383 9.00266 76.0026 9.13901 75.792 9.24264C75.4398 9.416 75.3622 9.43105 74.8202 9.43119C74.2798 9.43131 74.1984 9.4157 73.8342 9.24198C72.3421 8.53035 71.9874 6.6452 73.1168 5.42951C73.2842 5.24932 73.5479 5.05467 73.7819 4.93868C74.148 4.75711 74.2055 4.74647 74.8197 4.74647C75.4358 4.74647 75.4906 4.75672 75.8637 4.94148C76.1355 5.0761 76.3559 5.246 76.5752 5.49003L76.893 5.84356H77.7895H78.6861L78.645 5.71013C78.6224 5.63674 78.5307 5.42986 78.4414 5.25039C77.4667 3.29331 75.0892 2.45101 73.1319 3.36937C72.3664 3.72854 71.7102 4.33003 71.2737 5.07263C70.9058 5.69845 70.6995 6.74006 70.7891 7.51902C70.9032 8.51026 71.2427 9.21061 71.9624 9.93942C72.6355 10.621 73.3502 10.9903 74.2901 11.1424C74.6532 11.2011 75.533 11.1249 75.9396 10.9995H75.9397ZM99.8822 10.3802V9.57959H97.9322C96.1342 9.57959 95.9851 9.57186 96.02 9.48049C96.0407 9.42598 96.3912 8.76723 96.7989 8.01661L97.54 6.65184L97.3887 6.35148C97.3055 6.18628 97.0759 5.7509 96.8784 5.38397L96.5195 4.71682H98.2598H100V3.88659V3.05636H96.8179H93.6358L93.7333 3.24909C93.787 3.35509 94.1982 4.12604 94.6471 4.96231C95.0961 5.79859 95.4784 6.52213 95.4967 6.5702C95.515 6.61826 95.4455 6.80134 95.3423 6.97703C95.1115 7.36973 93.1087 11.1141 93.1087 11.1529C93.1087 11.1682 94.6327 11.1808 96.4954 11.1808H99.8822V10.3802ZM23.8423 8.06739V5.07263H25.1101H26.3778L26.3617 4.07932L26.3455 3.08601L23.0619 3.07068L19.7782 3.05536V4.06399V5.07263H21.0151H22.252V8.06739V11.0621H23.0471H23.8423L23.8423 8.06739ZM31.7349 9.66647V8.2708L32.3281 8.2877L32.9213 8.3046L33.6602 9.68337L34.3991 11.0622H35.3951H36.391L36.294 10.8694C36.2407 10.7634 35.9069 10.1366 35.5523 9.47654C35.1977 8.81647 34.9242 8.24939 34.9445 8.21637C34.9648 8.18336 35.0276 8.15634 35.0841 8.15634C35.2559 8.15634 35.7712 7.86934 35.9986 7.64698C36.1165 7.53165 36.2791 7.30605 36.3598 7.14563C36.6419 6.58515 36.6938 6.22109 36.7251 4.58339L36.7542 3.05636H33.4494H30.1446V7.05925V11.0622H30.9397H31.7349V9.66647ZM31.676 5.69912V4.71682H33.3761H35.0762L35.1134 4.99041C35.1677 5.38949 35.0923 6.04925 34.9689 6.25346C34.742 6.62908 34.6821 6.64226 33.1071 6.66278L31.676 6.68143V5.69912ZM44.7417 8.51059C45.4923 7.10723 46.1065 5.93304 46.1065 5.90129C46.1065 5.86633 45.7463 5.84356 45.1935 5.84356C44.6914 5.84356 44.2806 5.827 44.2806 5.80676C44.2806 5.78653 44.5986 5.17596 44.9874 4.44996C45.3761 3.72395 45.6942 3.11339 45.6942 3.09315C45.6942 3.07291 45.25 3.05636 44.7071 3.05636H43.72L42.572 5.20244C41.9406 6.38278 41.4154 7.38351 41.4049 7.42627C41.3898 7.48791 41.5772 7.50402 42.3094 7.50402C43.1645 7.50402 43.2301 7.51171 43.1941 7.6078C43.1728 7.66488 42.7591 8.45265 42.2749 9.3584C41.7907 10.2642 41.3945 11.018 41.3945 11.0337C41.3945 11.0493 41.8405 11.0622 42.3857 11.0622H43.377L44.7417 8.51059ZM57.2538 10.7508C57.1588 10.5796 56.1984 8.79162 55.1196 6.77757C54.0408 4.76352 53.1419 3.11622 53.1221 3.1169C53.085 3.11818 48.8748 10.9565 48.8748 11.0243C48.8748 11.0451 50.7989 11.0622 53.1507 11.0622H57.4265L57.2538 10.7508ZM51.8349 9.20896C51.9141 9.07034 52.2236 8.49681 52.5226 7.93446C52.8217 7.3721 53.087 6.89914 53.1122 6.88345C53.149 6.86053 54.5292 9.34659 54.5292 9.43587C54.5292 9.44968 53.8905 9.46099 53.11 9.46099H51.6908L51.8349 9.20896ZM62.5535 9.10298L62.569 7.1438L64.9183 9.07481C66.2104 10.1369 67.2905 11.0201 67.3185 11.0375C67.3469 11.0551 67.3694 9.29812 67.3694 7.06275V3.05636H66.5161H65.6628L65.6473 5.04263L65.6318 7.02891L63.2521 5.07228C61.9433 3.99614 60.85 3.11566 60.8225 3.11566C60.7951 3.11566 60.7726 4.90362 60.7726 7.0889V11.0622H61.6553H62.538L62.5535 9.10298ZM89.3391 10.2616V9.46099H87.4185C85.6532 9.46099 85.501 9.45304 85.5355 9.36253C85.5561 9.30838 85.9698 8.5213 86.4548 7.61346C86.9397 6.70562 87.3365 5.936 87.3365 5.9032C87.3365 5.86578 86.9963 5.84356 86.4235 5.84356C85.9214 5.84356 85.5106 5.82915 85.5106 5.81153C85.5106 5.79392 85.8286 5.18339 86.2174 4.45481C86.6061 3.72622 86.9242 3.11351 86.9242 3.09323C86.9242 3.07295 86.48 3.05636 85.9371 3.05636H84.95L83.802 5.20244C83.1706 6.38278 82.6454 7.38351 82.6349 7.42627C82.6198 7.48796 82.8103 7.50402 83.5572 7.50402H84.4985L83.5615 9.25434C83.0461 10.217 82.6245 11.0176 82.6245 11.0334C82.6245 11.0492 84.1353 11.0622 85.9818 11.0622H89.3391V10.2616Z" fill="black"></path>
<path id="path7038" d="M7.02819 0V14.2241L0 9.53222L7.02819 0Z" fill="url(#paint0_linear_205_145)"></path>
<path id="path7040" d="M7.02819 0L14.1994 9.59574L7.00198 7.02155L7.02819 0Z" fill="url(#paint1_linear_205_145)"></path>
</g>
<defs>
<linearGradient id="paint0_linear_205_145" x1="7.02819" y1="14.2241" x2="7.02819" y2="0" gradientUnits="userSpaceOnUse">
<stop stop-color="#FEB802"></stop>
<stop offset="1" stop-color="#FFFD89"></stop>
</linearGradient>
<linearGradient id="paint1_linear_205_145" x1="7.02819" y1="-1.42083e-07" x2="14.2619" y2="9.54845" gradientUnits="userSpaceOnUse">
<stop stop-color="#FE7979"></stop>
<stop offset="1" stop-color="#FBD259"></stop>
</linearGradient>
<clipPath id="clip0_205_145">
<rect width="100" height="14.2241" fill="white"></rect>
</clipPath>
</defs>
</svg>

<svg class="partner-size" width="100" height="15" viewBox="0 0 100 15" fill="none" xmlns="http://www.w3.org/2000/svg"><g clip-path="url(#clip0_205_145)"><path class="fill" d="M75.94 11a4.11 4.11 0 0 0 1.615-.928l.428-.394.34.188c.188.103.358.188.379.188.02 0 .03-.456.022-1.014l-.016-1.015-2.003-1.09c-1.101-.6-2.022-1.09-2.047-1.09-.024-.001-.044.446-.043.992v.993l.921.498.92.497-.14.115c-.078.063-.313.199-.524.303-.352.173-.43.188-.972.188-.54 0-.622-.015-.986-.189-1.492-.712-1.847-2.597-.717-3.812.167-.18.43-.375.665-.491.366-.182.424-.193 1.038-.193.616 0 .67.01 1.044.195.271.135.492.305.711.549l.318.354H78.686l-.041-.134a4.517 4.517 0 0 0-.204-.46c-.974-1.957-3.352-2.799-5.31-1.88-.765.359-1.42.96-1.857 1.703-.368.625-.575 1.667-.485 2.446.114.991.454 1.692 1.173 2.42.673.682 1.388 1.051 2.328 1.203.363.06 1.243-.017 1.65-.143Zm23.942-.62v-.8h-1.95c-1.798 0-1.947-.008-1.912-.1.02-.054.371-.713.779-1.463l.741-1.365-.151-.3c-.084-.166-.313-.601-.51-.968l-.36-.667H100v-1.66h-6.364l.097.192c.054.106.465.877.914 1.713.45.837.831 1.56.85 1.608.018.048-.052.231-.155.407-.23.393-2.233 4.137-2.233 4.176 0 .015 1.524.028 3.386.028h3.387v-.8Zm-76.04-2.313V5.073h2.536l-.016-.994-.016-.993-3.284-.015-3.284-.016v2.018h2.474V11.062h1.59V8.067Zm7.893 1.6V8.27l.593.017.593.017.74 1.378.738 1.38h1.992l-.097-.194a136.68 136.68 0 0 0-.742-1.392c-.354-.66-.628-1.228-.608-1.26.02-.034.084-.06.14-.06.172 0 .687-.288.915-.51.117-.115.28-.341.36-.501.283-.56.335-.925.366-2.563l.03-1.527H30.144v8.006h1.59V9.666Zm-.059-3.968v-.982h3.4l.037.273c.055.4-.02 1.06-.144 1.263-.227.376-.287.39-1.862.41l-1.431.018V5.7Zm13.066 2.812c.75-1.404 1.364-2.578 1.364-2.61 0-.035-.36-.057-.913-.057-.502 0-.912-.017-.912-.037 0-.02.318-.631.706-1.357.39-.726.707-1.337.707-1.357 0-.02-.444-.037-.987-.037h-.987l-1.148 2.146c-.631 1.18-1.157 2.182-1.167 2.224-.015.062.172.078.904.078.855 0 .921.008.885.104-.021.057-.435.845-.92 1.75-.483.906-.88 1.66-.88 1.676 0 .015.447.028.992.028h.991l1.365-2.551Zm12.512 2.24c-.095-.171-1.056-1.96-2.134-3.973-1.08-2.014-1.978-3.662-1.998-3.661-.037.001-4.247 7.84-4.247 7.907 0 .021 1.924.038 4.276.038h4.275l-.172-.311Zm-5.42-1.542c.08-.139.39-.712.689-1.275.299-.562.564-1.035.59-1.05.036-.023 1.416 2.463 1.416 2.552 0 .014-.639.025-1.419.025h-1.42l.145-.252Zm10.72-.106.015-1.96 2.35 1.932a316.773 316.773 0 0 0 2.4 1.963c.028.017.05-1.74.05-3.975V3.056h-1.706l-.016 1.987-.015 1.986-2.38-1.957c-1.309-1.076-2.402-1.956-2.43-1.956-.027 0-.05 1.788-.05 3.973v3.973h1.766l.016-1.959Zm26.785 1.159V9.46h-1.92c-1.766 0-1.918-.008-1.883-.098.02-.055.434-.842.919-1.75.485-.907.882-1.677.882-1.71 0-.037-.34-.06-.913-.06-.503 0-.913-.014-.913-.031 0-.018.318-.629.706-1.357.39-.729.707-1.341.707-1.362 0-.02-.444-.037-.987-.037h-.987l-1.148 2.146c-.631 1.18-1.157 2.182-1.167 2.224-.015.062.175.078.922.078h.942l-.938 1.75a76.442 76.442 0 0 0-.937 1.78c0 .015 1.511.028 3.358.028h3.357v-.8Z" fill="#000"/><path d="M7.028 0v14.224L0 9.532 7.028 0Z" fill="url(#paint0_linear_205_145)"/><path d="M7.028 0 14.2 9.596 7.002 7.022 7.028 0Z" fill="url(#paint1_linear_205_145)"/></g><defs><linearGradient id="paint0_linear_205_145" x1="7.028" y1="14.224" x2="7.028" y2="0" gradientUnits="userSpaceOnUse"><stop stop-color="#FEB802"/><stop offset="1" stop-color="#FFFD89"/></linearGradient><linearGradient id="paint1_linear_205_145" x1="7.028" y1="0" x2="14.262" y2="9.548" gradientUnits="userSpaceOnUse"><stop stop-color="#FE7979"/><stop offset="1" stop-color="#FBD259"/></linearGradient><clipPath id="clip0_205_145"><path fill="#fff" d="M0 0h100v14.224H0z"/></clipPath></defs></svg>
